assets/settings.svg

<?xml version="1.0" encoding="UTF-8"?>
<svg width="12px" height="12px" viewBox="0 0 12 12" version="1.1" xmlns="http://www.w3.org/2000/svg" xmlns:xlink="http://www.w3.org/1999/xlink">
    <!-- Generator: Sketch 42 (36781) - http://www.bohemiancoding.com/sketch -->
    <title>Shape</title>
    <desc>Created with Sketch.</desc>
    <defs></defs>
    <g id="Page-1" stroke="none" stroke-width="1" fill="none" fill-rule="evenodd">
        <g id="Artboard-Copy-5" transform="translate(-569.000000, -12.000000)" fill-rule="nonzero" fill="#FFFFFF">
            <g id="header" transform="translate(243.000000, 0.000000)">
                <g id="settings-(1)" transform="translate(326.000000, 12.000000)">
                    <g id="Capa_1">
                        <path d="M11.2781538,5.28415385 C10.2066923,5.07807692 9.71538462,3.82615385 10.3606154,2.94646154 L10.8138462,2.32846154 L9.83469231,1.34930769 L9.22592308,1.76169231 C8.32269231,2.37369231 7.08992308,1.83576923 6.92423077,0.757615385 L6.80769231,0 L5.42307692,0 L5.24376923,0.932538462 C5.04230769,1.98023077 3.83492308,2.48053846 2.95153846,1.88215385 L2.16530769,1.34930769 L1.18615385,2.32846154 L1.63938462,2.94646154 C2.28461538,3.82615385 1.79307692,5.07807692 0.721846154,5.28415385 L0,5.42307692 L0,6.80769231 L0.757615385,6.92423077 C1.836,7.09015385 2.37369231,8.32292308 1.76169231,9.22615385 L1.34930769,9.83469231 L2.32846154,10.8138462 L2.94646154,10.3606154 C3.82615385,9.71538462 5.07807692,10.2066923 5.28415385,11.2781538 L5.42307692,12 L6.80769231,12 L6.88961538,11.4671538 C7.05923077,10.365 8.33746154,9.83538462 9.23676923,10.4949231 L9.67153846,10.8138462 L10.6506923,9.83469231 L10.2383077,9.22615385 C9.62653846,8.32292308 10.1642308,7.09015385 11.2423846,6.92423077 L12,6.80769231 L12,5.42307692 L11.2781538,5.28415385 Z M6.11538462,7.15384615 C5.54192308,7.15384615 5.07692308,6.68884615 5.07692308,6.11538462 C5.07692308,5.54192308 5.54192308,5.07692308 6.11538462,5.07692308 C6.68884615,5.07692308 7.15384615,5.54192308 7.15384615,6.11538462 C7.15384615,6.68884615 6.68884615,7.15384615 6.11538462,7.15384615 Z" id="Shape"></path>
                    </g>
                </g>
            </g>
        </g>
    </g>
</svg>

<svg id="Layer_1" data-name="Layer 1" xmlns="http://www.w3.org/2000/svg" viewBox="0 0 12 12"><defs><style>.cls-1{fill:#fff;}</style></defs><title>settings</title><g id="Capa_1" data-name="Capa 1"><path id="Shape" class="cls-1" d="M11.28,5.28a1.49,1.49,0,0,1-.92-2.34l.45-.62-1-1-.61.41a1.49,1.49,0,0,1-2.3-1L6.81,0H5.42L5.24.93A1.49,1.49,0,0,1,3,1.88l-.79-.53-1,1,.45.62A1.49,1.49,0,0,1,.72,5.28L0,5.42V6.81l.76.12a1.49,1.49,0,0,1,1,2.3l-.41.61,1,1,.62-.45a1.49,1.49,0,0,1,2.34.92l.14.72H6.81l.08-.53a1.49,1.49,0,0,1,2.35-1l.43.32,1-1-.41-.61a1.49,1.49,0,0,1,1-2.3L12,6.81V5.42ZM6.12,7.15a1,1,0,1,1,1-1A1,1,0,0,1,6.12,7.15Z"/></g></svg>
